packages/IcoMoon/src/GooglePlus2Icon/index.svg

<svg version="1.1" xmlns="http://www.w3.org/2000/svg" width="16" height="16" viewBox="0 0 16 16">
<path d="M14.5 0h-13c-0.825 0-1.5 0.675-1.5 1.5v13c0 0.825 0.675 1.5 1.5 1.5h13c0.825 0 1.5-0.675 1.5-1.5v-13c0-0.825-0.675-1.5-1.5-1.5zM6 12c-2.212 0-4-1.787-4-4s1.788-4 4-4c1.081 0 1.984 0.394 2.681 1.047l-1.088 1.044c-0.297-0.284-0.816-0.616-1.594-0.616-1.366 0-2.481 1.131-2.481 2.525s1.116 2.525 2.481 2.525c1.584 0 2.178-1.137 2.269-1.725h-2.269v-1.372h3.778c0.034 0.2 0.063 0.4 0.063 0.663 0 2.287-1.531 3.909-3.841 3.909zM14 8h-1v1h-1v-1h-1v-1h1v-1h1v1h1v1z"></path>
</svg>

<svg xmlns="http://www.w3.org/2000/svg" viewBox="0 0 16 16">
  <path d="M14.5 0h-13C.675 0 0 .675 0 1.5v13c0 .825.675 1.5 1.5 1.5h13c.825 0 1.5-.675 1.5-1.5v-13c0-.825-.675-1.5-1.5-1.5zM6 12c-2.212 0-4-1.787-4-4s1.788-4 4-4c1.081 0 1.984.394 2.681 1.047L7.593 6.091c-.297-.284-.816-.616-1.594-.616-1.366 0-2.481 1.131-2.481 2.525s1.116 2.525 2.481 2.525c1.584 0 2.178-1.137 2.269-1.725H5.999V7.428h3.778c.034.2.063.4.063.663C9.84 10.378 8.309 12 5.999 12zm8-4h-1v1h-1V8h-1V7h1V6h1v1h1v1z"/>
</svg>
